X: 16600
T: Hand Organ, The
R: hornpipe
M: 4/4
K: Gmajor
|:(3def|g2 d>B G>Bd>g|e>cA>F G2 A>B|c2 e>d c2 (3BAG|F>AG>E D2 (3def|
g>d (3Bcd G>Bd>g|e>cA>F G2 (3GAB|c>ed>c B>AG>F|A2 G2 G2:|
|:(3edc|B>dG>d (3Bcd G>d|c>eA>e (3cde A>e|B>dG>d B>dG>D|(3FGA d>A (3FGA D>A|
(3Bcd G>d (3Bcd G>d|(3cde A>e (3cde A>e|d>gf>e (3ded (3cBA|G2 g2 G2:|

